casedrop/img/balance/images/mts.svg

<svg width="53" height="53" viewBox="0 0 53 53" fill="none" xmlns="http://www.w3.org/2000/svg">
<path d="M53 0H0V53H53V0Z" fill="#FF0032"/>
<path d="M35.3086 4.07606V6.51522H40.6422V16.3044H43.6235V6.51522H48.9462V4.07606H35.3086Z" fill="white"/>
<path d="M16.131 4.07606L12.2283 12.1633L8.33655 4.07606H4.07617V16.3044H7.06819V7.55592L10.8733 14.9493H13.5943L17.3993 7.55592V16.3044H20.3806V4.07606H16.131Z" fill="white"/>
<path d="M45.9639 44.8478C45.888 45.3356 45.6929 45.7367 45.3785 46.0403C45.0858 46.3221 44.6847 46.5281 44.186 46.6473C43.6981 46.7558 42.9719 46.8208 42.2131 46.8208C41.4217 46.8208 40.7279 46.7232 40.1316 46.5173C39.557 46.3221 39.1017 45.9752 38.7873 45.4982C38.4621 45.0212 38.2995 44.3275 38.2995 43.4277V42.181C38.2995 41.2921 38.4621 40.5982 38.7873 40.1104C39.1126 39.6334 39.557 39.2866 40.1316 39.0915C40.717 38.8855 41.4217 38.7879 42.2131 38.7879C42.9719 38.7879 43.6981 38.853 44.186 38.9614C44.6847 39.0806 45.0858 39.2756 45.3785 39.5684C45.6929 39.8719 45.888 40.273 45.9639 40.7608H48.945C48.8583 39.7526 48.5223 38.8963 47.9261 38.2025C47.3841 37.5737 46.6252 37.1184 45.682 36.8366C44.7714 36.5655 43.5681 36.4246 42.2131 36.4246C40.7821 36.4246 39.5462 36.6306 38.5271 37.0317C37.4974 37.4437 36.6952 38.1266 36.1423 39.0698C35.6111 39.9695 35.34 41.1836 35.3184 42.658V42.7989L35.481 42.8098L35.3184 42.8206V42.8315V42.9616C35.34 44.4359 35.6111 45.65 36.1423 46.5498C36.6952 47.4929 37.4974 48.1759 38.5271 48.5879C39.5462 48.989 40.7821 49.195 42.2131 49.195C43.5681 49.195 44.7714 49.054 45.682 48.783C46.6252 48.5011 47.3732 48.0458 47.9261 47.417C48.5223 46.7341 48.8691 45.8668 48.945 44.8586H45.9639V44.8478Z" fill="white"/>
</svg>

<svg width="53" height="53" fill="none" xmlns="http://www.w3.org/2000/svg"><path d="M53 0H0v53h53V0z" fill="#FF0032"/><path d="M35.309 4.076v2.44h5.333v9.788h2.981V6.515h5.323V4.076H35.31zm-19.178 0l-3.903 8.087-3.891-8.087h-4.26v12.228h2.991V7.556l3.805 7.393h2.721L17.4 7.556v8.748h2.982V4.076h-4.25zm29.833 40.772c-.076.488-.271.889-.585 1.192-.293.282-.694.488-1.193.607-.488.109-1.214.174-1.973.174-.791 0-1.485-.098-2.081-.304a2.556 2.556 0 01-1.345-1.019c-.325-.477-.487-1.17-.487-2.07V42.18c0-.889.162-1.583.487-2.07.326-.478.77-.824 1.345-1.02.585-.206 1.29-.303 2.081-.303.759 0 1.485.065 1.973.173.499.12.9.315 1.193.607.314.304.509.705.585 1.193h2.981c-.087-1.008-.423-1.865-1.019-2.559-.542-.628-1.3-1.084-2.244-1.365-.91-.272-2.114-.412-3.469-.412-1.43 0-2.667.206-3.686.607a4.73 4.73 0 00-2.385 2.038c-.53.9-.802 2.114-.824 3.588v.14l.163.012-.163.01v.143c.022 1.475.293 2.689.824 3.589a4.731 4.731 0 002.385 2.038c1.02.401 2.255.607 3.686.607 1.355 0 2.558-.141 3.469-.412.943-.282 1.691-.737 2.244-1.366.596-.683.943-1.55 1.019-2.558h-2.981v-.011z" fill="#fff"/></svg>
